src/components/ProductFeature/images/icons/annotations.svg

<svg fill="#A970DC" viewBox="0 0 32 32"><path d="M29.5 16a1.5 1.5 0 01-1.5 1.5h-8.38l5.93 5.92a1.51 1.51 0 01-2.13 2.13l-5.92-5.93V28a1.5 1.5 0 01-3 0v-8.38l-5.92 5.93a1.51 1.51 0 01-2.13-2.13l5.93-5.92H4a1.5 1.5 0 010-3h8.38L6.45 8.58a1.51 1.51 0 012.13-2.13l5.92 5.93V4a1.5 1.5 0 013 0v8.38l5.92-5.93a1.51 1.51 0 012.13 2.13l-5.93 5.92H28a1.5 1.5 0 011.5 1.5z" data-name="54 Asterisk"/></svg>

<svg height='100px' width='100px'  fill="#A970DC" xmlns="http://www.w3.org/2000/svg" viewBox="0 0 32 32" x="0px" y="0px"><g data-name="54 Asterisk"><path d="M29.5,16A1.5,1.5,0,0,1,28,17.5H19.62l5.93,5.92a1.51,1.51,0,0,1-2.13,2.13L17.5,19.62V28a1.5,1.5,0,0,1-3,0V19.62L8.58,25.55a1.51,1.51,0,0,1-2.13-2.13l5.93-5.92H4a1.5,1.5,0,0,1,0-3h8.38L6.45,8.58A1.51,1.51,0,0,1,8.58,6.45l5.92,5.93V4a1.5,1.5,0,0,1,3,0v8.38l5.92-5.93a1.51,1.51,0,0,1,2.13,2.13L19.62,14.5H28A1.5,1.5,0,0,1,29.5,16Z"></path></g></svg>
